X: 1
T: Maggie's Pancakes
R: reel
M: 4/4
L: 1/8
K: Dmaj
fBB2 fgfe|dBAB GBdB|cAAd AAec|afdB ecAc|
dBB2 fgfe|dBAB GBdB|cAdc ecA2|afec B4:|
f2dB GBdB|caec dBB2|f2dB GBdB|caec Bcde|
fdd2 fgfe|dBAB GBdB|cAdA eAA2|afec B4:|


Tune 1316	Setting 14654

